X:1
T:Missa Ave Maria: Kyrie
T:Missa Ave Maria: Kyrie
T:A. Fevin
C:A. Fevin
%%score 1 2 3 4
L:1/8
Q:1/4=120
M:4/4
K:C
V:1 treble nm="Soprano" snm="S"
V:2 treble nm="Alto" snm="A"
V:3 treble-8 nm="Tenor" snm="T"
V:4 bass nm="Bass" snm="B"
V:1
 z8 | z8 | z4 G4 | c8 | c4 d4 | e6 dc | f4 e2 f2- | f2 ed c2 d2- | dc c4 B2 | c8 | z8 | z8 | z8 | %13
w: ||Ky-|rie|e- le-||||* * * i-|son,||||
 z4 G4 | c8 | c4 d4 | e4 c3 B | AG A3 G c2- | c2 B2 c4- | c4 z4 | z8 | z8 | z8 | z8 | z8 | z8 | %26
w: Ky-|rie|e- le-|||* i- son,||||||||
 z8 | z4 G4 | c8 | c4 d4 | e4 c4 | f6 ed | e3 d e2 d2- | dc c4 B2 | c8- | c8 || z8 | c6 B2 | %38
w: |Ky-|rie|e- le-||||* * * i-|son,|||Chri- ste|
 A4 G3 A/G/ | AB c4 B2 | c8 | z8 | z8 | z8 | G3 A B2 c2- | c2 BA B3 c | d2 e4 dc | d3 cBG c2 | %48
w: e- le- * *|* * * i-|son,||||Chri- * * ste|* e- * le- *|* * i- *|son, * * * *|
 B2 A3 G G2- | G2 ^F2 G4- | G4 z4 | G3 A B2 c2- | c2 BA B3 c | d2 e4 dc | d2 e3 d B2 | c3 d B2 B2 | %56
w: e- le- * *|* i- son,||Chri- * * ste|* e- * * *|* le- i- *|son, e- * *|le- * * i-|
 B4 z4 | z8 | z8 | z2 g3 fed | e2 d3 c c2- | c2 B2 c3 B | AG A4 GF | E8 || z8 | z8 | z8 | z8 | G8 | %69
w: son.|||Chri- * * *|ste e- * le-||* * * i- *|son.|||||Ky-|
 G4 A4 | B4 G2 B2- | BA d4 ^c2 | d8 | z8 | z8 | z8 | z2 G2 GABc | de d4 ^c2 | d6 cB | cBAG A4 | %80
w: rie e-|le- * *|* * * i-|son.||||e- le- * * *|* * * i-|son, e- *|lei- * * * son,|
 z2 G4 A2- | AG c4 B2 | c8 | z8 | z8 | z8 | z8 | z8 | z8 | z8 | c8 | A4 G4 | c4 d4 | e4 z2 e2- | %94
w: e- le-|* * * i-|son,||||||||Ky-|rie e-|lei- *|son, e-|
 ed c4 B2 | c8 |] %96
w: * * le- i-|son.|
V:2
 G,4 C4- | C4 C4 | D4 E4- | E2 DC F4 | E2 F4 ED | C4 G4 | A4 G2 A2- | A2 GFED F2- | FEDC D4 | C8 | %10
w: Ky- rie|* e-|lei *|||||||son,|
 z8 | G,4 C4- | C4 C4 | D4 E4 | C3 B,A,G, A,2- | A,G, C4 B,2 | C8 | z8 | z8 | z8 | z8 | z2 G4 FE | %22
w: |Ky- rie|* e-|le- *|||son,|||||e- * *|
 D2 E4 DC | B,8 | z8 | z8 | z8 | G,4 C3 D | EF G2 C2 G2 | E2 F2 D4 | C8 | z4 D4 | G8 | E2 F2 G4 | %34
w: * lei- * *|son,||||Ky- rie *|* * * e- *|lei * *|son,|e-|lei-||
 E4 C4 | G8 || C3 D E2 F2- | F2 EDEF G2- | G2 ^F2 G2 FE | FEDC D4 | C8 | z8 | z8 | z8 | z2 G3 FED | %45
w: |son.|Chri- * * ste|* e- * * * le-|* i- son, e- *|lei * * * *|son,||||Chri- * * *|
 E2 C2 D2 G,2 | G4 E2 F2 | D2 F4 E2 | F3 EDE D2- | D2 C2 D4 | z8 | z2 G3 FED | E2 C2 D2 G,2 | %53
w: ste e- le- *|* * i-|son, e- *|le- * * * *|* i- son,||Chri- * * *|ste e- lei- *|
 G4 E2 F2 | D2 CDEF G2- | G2 ^F2 G4 | z2 G3 FED | E2 D4 C2- | C2 B,2 C4 | G3 FED E2 | C3 B, C4 | %61
w: |son, e- * * * le-|* i- son,|Chri- * * *|ste e- le-|* i- son,|Chri- * * * ste|e- * *|
 G4 E4 | F8 | G8 || C8 | C4 D4 | E4 C2 E2- | ED G4 ^F2 | G8 | z8 | z4 G4 | G4 E4 | D2 G4 FE | %73
w: lei- *||son.|Ky-|rie e-|le- * *|* * * i-|son,||Ky-|rie e-|le- * i- *|
 DCB,A, G,4 | z8 | z8 | z4 G4 | G4 E4 | D3 E FGAB | AG G4 ^F2 | G6 FE | FEDC D4 | C8 | z8 | z8 | %85
w: son, * * * *|||Ky-|rie e-|le- * * * * *|* * * i-|son, e- *|lei- * * * *|son.|||
 z8 | z8 | z4 C4- | C4 A,4 | G,4 C4- | C2 D2 E2 G2- | G2 F2 G3 F | G2 A4 GF | E4 C2 D2 | E2 F2 G4 | %95
w: ||Ky-|* rie|e- le-||* i- son, *|* e- * *|* lei- *||
 G8 |] %96
w: son.|
V:3
 z8 | z8 | z8 | z8 | z8 | z8 | z8 | z8 | z4 G4 | c8 | c4 d4 | e4 c3 B | AG A3 G c2- | c2 B2 c4 | %14
w: ||||||||Ky-|rie|e- le-|||* i- son,|
 z8 | z8 | G4 c4- | c4 c4 | d4 e4 | c3 d e2 f2- | f2 e4 d2 | e8 | z8 | z2 e4 dc | B2 c4 BA | %25
w: ||Ky- rie|* e-|le- *||* * i-|son,||e- * *|* le- * *|
 GABc d2 e2- | ed c4 B2 | c8 | z4 G4 | A4 B4 | c6 B2 | A3 G A2 B2 | G2 c4 B2 | c4 d4 | c8- | c8 || %36
w: |* * * i-|son,|e-|lei- *|||||son.||
 z8 | z8 | z8 | z8 | z8 | c6 B2 | A4 G2 AG | AB c4 B2 | c4 z4 | z8 | z8 | z8 | z8 | z4 G3 A | %50
w: |||||Chri- ste|e- le- * *|* * * i-|son,|||||Chri- *|
 B2 c4 BA | B4 z4 | z4 G3 A | B2 c4 BA | B2 c3 BAG | A4 G4- | G8 | z8 | z4 z2 g2- | gfed e2 c2 | %60
w: * ste, * *||Chri- *|* ste e- *|* lei- * * *|* son.|||Chri-|* * * * ste e-|
 g4 e2 f2 | d4 c4- | c4 A3 B | c8 || z8 | z8 | z8 | z8 | z8 | z8 | G8 | G4 A4 | B4 G2 B2- | %73
w: lei * *|||son.|||||||Ky-|rie e-|le- * *|
 BA d4 ^c2 | d6 cB | cBAG A4 | G8 | z8 | z8 | z8 | z8 | z8 | c8 | A4 G4 | c4 d4 | e4 z2 e2 | %86
w: * * * i-|son, e- *|lei- * * * *|son.||||||Ky-|rie e-|lei- *|son, e-|
 ed c4 B2 | c8 | z4 c4- | c4 A4 | G4 c4 | d4 e3 d | e2 f4 ed | c2 g3 fed | c4 d4 | c8 |] %96
w: * * le- i-|son,|Ky-|* rie|e- lei-|* son, *|* e- * *|* lei- * * *||son.|
V:4
 z8 | z8 | z8 | z8 | z8 | z8 | z8 | z8 | z8 | C,4 F,4- | F,4 F,4 | G,4 A,3 G, | F,C, F,4 D,2 | %13
w: |||||||||Ky- rie|* e-|lei- * *||
 D,4 C,4 | A,3 G,F,E, F,2- | F,2 E,2 D,4 | C,8 | F,4 A,4 | G,4 C3 B, | A,G, A,2 G,2 F,2- | %20
w: |||son,|Ky- rie|e- lei- *||
 F,G, E,2 F,4 | E,8 | G,8 | G,4 E,3 F, | G,2 A,4 G,F, | E,2 G,3 F,E,D, | C,2 E,2 D,4 | C,8- | C,8 | %29
w: |son,|Ky-|rie e- *|* lei- * *|||son,||
 z4 G,4 | C3 B, A,2 G,2 | F,2 E,2 D,2 B,,2 | C,4 G,4 | A,4 G,4 | C,8- | C,8 || z8 | z8 | z8 | z8 | %40
w: e-|lei- * * *||||son.||||||
 C,3 D, E,2 F,2- | F,2 E,D,E,F, G,2- | G,2 ^F,2 G,2 =F,E, | F,E,D,C, D,4 | C,4 z4 | z4 G,3 A, | %46
w: Chri- * * ste|* e- * * * le-|* i- son, e- *|lei * * * *|son,|Chri- *|
 B,2 C4 B,A, | B,C D4 C2 | D2 CB, CB,A,G, | A,4 z2 G,2- | G,F,E,D, E,2 C,2 | G,4 z4 | z8 | z8 | %54
w: * ste e- *|* * le- i-|son, e- * lei- * * *|son, e-|* * * * le- i-|son,|||
 z8 | z4 z2 G,2 | G,F,E,D, E,2 C,2 | G,4 E,2 F,2 | D,4 C,4- | C,8 | z2 G,2 A,2 F,2 | G,4 A,3 G, | %62
w: |Chri-|* * * * ste e-|lei- * *|* son,||Chri- ste e-|le- * *|
 F,E, F,4 E,D, | C,8 || z8 | z8 | C,8 | C,4 D,4 | E,4 C,2 E,2- | E,D, G,4 ^F,2 | G,8 | z8 | %72
w: * * * i- *|son.|||Ky-|rie e-|le- * *|* * * i-|son,||
 z4 G,4 | G,4 E,4 | D,3 E, F,G,A,B, | A,G, G,4 ^F,2 | G,8 | z8 | z8 | z8 | C8 | A,4 G,4 | %82
w: Ky-|rie e-|le- * * * * *|* * * i-|son,||||Ky-|rie *|
 z2 C3 B, A,2- | A,2 G,F,E,D, G,2- | G,E, F,4 E,D, | C,D,E,F, G,3 F, | E,2 F,2 D,4 | C,8- | C,8- | %89
w: e- * lei-|||||son,||
 C,8- | C,8 | z8 | z8 | C8 | A,4 G,4 | C,8 |] %96
w: ||||e-|lei- *|son.|

